X:2560
T:Swalwell Lasses
C:anon.
O:England
S:NPTB3
R:Hornpipe
Z:C.G.P
F:http://abc.musicaviva.com/tunes/england/swalwell-lasses.abc
%Posted at abcusers Jan 2nd 2001 by Johnny Adams.
M:4/4
L:1/8
K:G
D|G2G>B A>GA>B|G2e2e>dB>d|d>cA>c c>BA>G|E>AA>G G>FE>D|
G2G>B A>GA>B|G2e2e>dB>d|d>cA>d c>BA>G|E>GF>AG3:|
|:D|D>GG>AB2AG|E>AA>B c>BA>G|B>de>g B>de>g|B>dd>B c>BA>G|
D>GG>AB2A>G|E>AA>B c>BA>G|B>de>g B>de>g|E>GF>AG3:|
W:
W:
W:  From Musica Viva - http://www.musicaviva.com
W:  the Internet center for free sheet music downloads.

